X: 13730
T: Forest Baby
R: jig
M: 6/8
K: Gmajor
z3 z2d|egcBee|gag dAG|A3 Bde|edA BGA|egcBee|gag d2B|A2A Bde|e6||
egcBee|gag d2B|A3 Bde|edA BGA|egcBee|gag dAG|A3 Bde|e3-edc|
a2beca-|a2be2g|gfd3e|ae/f/g fdc||a2beca-|a2be2c|Ad e2fd|c-c/ d/eg3|
a2beca-|a2be2g|gfd3e|ae/f/g fdc|agb eca-|a2be2c|d6-d6|

